X: 2
T: Jenny's Wedding
R: reel
M: 4/4
L: 1/8
K: Dmaj
(3DDD FD ADFD|Acde fded|cAAB =c2=cd|eaag edd_d|
(3DDD FA defd|cAAB cdeg|fdec d2cA|BdcA FDDD:|
|:d2fd a2fd|ecAB cdec|d2fd a2fd|cdeg fdd2|
d2fd a2fd|cdef g2fg|(3agf ge fdec|dfeg fddd:|

